X:1960
T:Schottis from Spaelimenninir
M:4/4
L:1/8
R:Schottis
O:Scandinavian
S:Spaelimenninir, Burturav tr. 3
Z:<http://tunes.nhcountrydance.com>.
K:Dm
|: "Dm" D2 DE F2 FG      | "Dm" A2 AB A2 A2    | "Dm" d2 de f2 ((3efe) | "Dm" d4 A2 de |
   "Dm" f2 ((3efe) d2 AB | "C" c2 cB "F" A2 FG | "Dm" ABAG F2 G2       | "A7" A4 F2 de |
   "Dm" f2 ((3efe) d2 AB | "C" c2 cB "F" A2 FG | "Dm" ABAG "A7" F2 ((3EFE)  |1\
   "Dm" D6 C2   :|2 "Dm" D6 AA |]
|: "Dm" AFDF AFDF | "Dm" A2 d2 "G" c2 B2 | "Dm" ABAG F2 FG  | "A7" A6 AA |
   "Dm" AFDF AFDF | "Dm" A2 d2 "G" c2 B2 | "Dm" ABAG "A7" F2 ((3EFE) |1\
   "Dm" D6 AA   :|2 "Dm" D6 de |]  
|: "Dm" f2 ((3efe) d2 AB | "C" c2 cB "F" A2 FG | "Dm" ABAG F2 G2       | "A7" A4 F2 de |
   "Dm" f2 ((3efe) d2 AB | "C" c2 cB "F" A2 FG | "Dm" ABAG "A7" F2 ((3EFE)  |1\
            "Dm" D6 de   :|2 "Dm" D6 A,2 |]


Other Tunes

